alpha-x.svg

<svg fill="currentColor" viewBox="0 0 24 24"><path d="m9 7 2 5-2 5h2l1-2.5 1 2.5h2l-2-5 2-5h-2l-1 2.5L11 7z"/></svg>

<svg  viewBox="0 0 24 24" fill="currentColor"><path  d="M9,7L11,12L9,17H11L12,14.5L13,17H15L13,12L15,7H13L12,9.5L11,7H9Z"/></svg>
